X:1
T:Title
%%score { ( 1 3 ) | 2 }
L:1/8
Q:1/4=144
M:6/4
K:C
V:1 treble nm="Grand Piano"
V:3 treble 
V:2 bass 
V:1
 E2 D2 C2 [_Ec]2 [EB]2 [EA]2 | [EG]4 E2 C6 | z6 F6 | z6 G6 | E2 D2 C2 [_Ec]2 [EB]2 [EA]2 | %5
w: C.~Harold~Lowden * * * * *|||||
 [Dd]4 [DB]2 G6 | G2 A2 [EB]2 [Ec]2 [CE]2 [C^F]2 | [B,G]12 | [^CG]2 [CF]2 [CE]2 [CA]2 [CE]2 [CE]2 | %9
w: ||||
 [EG]4 [DF]2 [DF]6 | [^FA]2 [=F^G]2 [^FA]2 [Fd]2 [FA]2 [FA]2 | B4 c2 d6 | %12
w: |||
 [Ee]2 [Ed]2 [Ec]2 [Fc]2 [FB]2 G2 | [Gc]4 [Gc]2 c6 | c2 B2 A2 G4 e2 | [^Fe]2 [Fc]2 [=Fd]2 [Ec]6 | %16
w: ||||
 [eg]2- [Ce-g-]2 [Ee-g-]2 [Geg]2 a2 e2 | [Geg]4 [Fdf]2 [Fdf]6 | .[dfd']12 | [cec']4 [ce]2 [Geg]6 | %20
w: ||||
 [Ee]2 [Ed]2 [Ec]2 [Fc]2 [FB]2 G2 | [Gc]4 [Gc]2 c6 | c2 B2 A2 G4 e2 | [^Fe]2 [Fc]2 [=Fd]2 [Ec]6 |] %24
w: ||||
V:2
 [C,G,C]2 [C,F,C]2 [C,E,]2 [C,^F,]2 [C,F,]2 [C,F,]2 | [C,G,]4 [C,G,C]2 [C,E,]6 | %2
 [C,G,C]2 [F,G,B,]2 [E,G,]2 .[D,A,C]6 | [G,,G,]2 [G,B,]2 [F,G,B,]2 [E,G,C]4 [D,F,]2 | %4
 [C,G,C]2 [C,F,C]2 [C,E,]2 [C,^F,]2 [C,F,]2 [C,F,]2 | [B,,G,]4 [B,,G,]2 [E,G,B,]6 | %6
 [C,E,C]2 [C,E,C]2 [B,,^G,]2 [A,,A,]4 [D,A,]2 | [G,,G,]12 | %8
 [A,,E,]2 [A,,A,]2 [A,,A,]2 [A,,E,]2 [A,,A,]2 [A,,A,]2 | [D,A,]4 [D,A,]2 [D,A,]6 | %10
 [D,C]2 [D,B,]2 [D,C]2 [D,A,]2 [D,D]2 [D,D]2 | [G,DG]4 [G,A,^F]2 [G,B,=F]6 | %12
 [C,C]2 [C,G,]2 [C,G,]2 [D,G,]2 [D,G,]2 [F,B,]2 | [E,C]4 [E,_B,]2 [F,A,F]6 | %14
 [^F,A,_E]2 [F,B,E]2 [F,CE]2[K:treble] [G,C=E]4 [G,CG]2 | [D,A,]2 [D,A,]2 [G,B,]2 [C,C]6 | %16
 [C,,C,]2 [E,G,]2[K:treble] [G,C]2 [CE]2 [Ae]2 [Ec]2 | G,,4 [F,G,B,]2 [F,A,B,]6 | %18
 [G,,,G,,]2 [F,G,]2 [G,B,]2[K:treble] [G,B,D]2 [eg]2 [df]2 | [C,,C,]4 [G,CE]2 [G,CE]6 | %20
 [C,C]2 [C,G,]2 [C,G,]2 [D,G,]2 [D,G,]2 [F,B,]2 | [E,C]4 [E,_B,]2 [F,A,F]6 | %22
 [^F,A,_E]2 [F,B,E]2 [F,CE]2[K:treble] [G,C=E]4 [G,CG]2 | [D,A,]2 [D,A,]2 [G,B,]2 [C,C]6 |] %24
V:3
 x12 | x12 | E2 D2 C2 z4 ^G,2 | [B,F]2 E2 D2 z4 B,2 | x12 | x12 | x12 | x12 | x12 | x12 | x12 | %11
 x12 | x12 | x12 | x12 | x12 | G6 z6 | x12 | z2 B,2 D2 F2 e'2 d'2 | x12 | x12 | x12 | x12 | x12 |] %24

